X: 112
M: 2/2
L: 1/8
K: D
d2cB AGFE | F2D2 D2A2 |\
d2cB AGFE | D4 :: E2G2 |\
d2d2 fefg | a2a2 DCDE |\
dfed !+!c2B2 | A4 :: "2f"efgf |
efgf efge | !+!f2d2 EFGF |\
EFGF EFGE | F2D2 DCDE |\

